X: 113202
Q: "Reel."
M: C
L: 1/8
K: Bb
f !segno!|\
(ed)cB B2df | gfdf gabf |\
(ed)cB B2dB | cAFA cdef |\
(ed)cB B2df | gfdf gfga |\
b2bf (ed)cB |
[1 F2Ac (fg)=eg | fg=eg fcAF :|\
[2 GeFd EcDB | FGAB cde"_D.C."f |]


